assets/icons/24px/stroke/wallet-24px.svg

<svg width="24" height="24" viewBox="0 0 24 24" fill="none" xmlns="http://www.w3.org/2000/svg">
<path fill-rule="evenodd" clip-rule="evenodd" d="M6.93417 7C6.95604 7 6.97799 7 7 7L17.0658 7C17.9523 6.99995 18.7161 6.99991 19.3278 7.08215C19.9833 7.17028 20.6117 7.36902 21.1213 7.87868C21.631 8.38835 21.8297 9.0167 21.9179 9.67221C22.0001 10.2839 22.0001 11.0477 22 11.9342V16.0658C22.0001 16.9523 22.0001 17.7161 21.9179 18.3278C21.8297 18.9833 21.631 19.6117 21.1213 20.1213C20.6117 20.631 19.9833 20.8297 19.3278 20.9179C18.7161 21.0001 17.9523 21.0001 17.0658 21H6.93417C6.04769 21.0001 5.28387 21.0001 4.67221 20.9179C4.0167 20.8297 3.38835 20.631 2.87868 20.1213C2.36902 19.6117 2.17028 18.9833 2.08215 18.3278C1.99991 17.7161 1.99995 16.9523 2 16.0658L2 12C2 11.978 2 11.956 2 11.9342C1.99995 11.0477 1.99991 10.2839 2.08215 9.67221C2.17028 9.0167 2.36902 8.38835 2.87868 7.87868C3.38835 7.36902 4.0167 7.17028 4.67221 7.08215C5.28387 6.99991 6.04769 6.99995 6.93417 7ZM4.93871 9.06431C4.50497 9.12263 4.36902 9.21677 4.2929 9.2929C4.21677 9.36902 4.12263 9.50497 4.06431 9.93871C4.00213 10.4012 4 11.0289 4 12V16C4 16.9711 4.00213 17.5988 4.06431 18.0613C4.12263 18.495 4.21677 18.631 4.2929 18.7071C4.36902 18.7832 4.50497 18.8774 4.93871 18.9357C5.40121 18.9979 6.02893 19 7 19H17C17.9711 19 18.5988 18.9979 19.0613 18.9357C19.495 18.8774 19.631 18.7832 19.7071 18.7071C19.7832 18.631 19.8774 18.495 19.9357 18.0613C19.9979 17.5988 20 16.9711 20 16V12C20 11.0289 19.9979 10.4012 19.9357 9.93871C19.8774 9.50497 19.7832 9.36902 19.7071 9.2929C19.631 9.21677 19.495 9.12263 19.0613 9.06431C18.5988 9.00213 17.9711 9 17 9H7C6.02893 9 5.40122 9.00213 4.93871 9.06431Z" fill="white"/>
<path fill-rule="evenodd" clip-rule="evenodd" d="M6.93417 3.5C6.95604 3.5 6.97799 3.5 7 3.5L13.9113 3.5C14.5091 3.49997 15.0349 3.49994 15.4715 3.54707C15.9441 3.59809 16.4019 3.71143 16.8327 3.99548C17.2635 4.27953 17.548 4.65572 17.781 5.06996C17.9963 5.45267 18.2035 5.93603 18.4389 6.48552L18.9191 7.60609L17.0809 8.39392L16.6199 7.31825C16.3594 6.71052 16.194 6.32797 16.0379 6.05058C15.8938 5.79435 15.8019 5.71143 15.7317 5.66516C15.6615 5.61889 15.5491 5.56708 15.2568 5.53552C14.9404 5.50135 14.5236 5.5 13.8624 5.5H7C6.02893 5.5 5.40122 5.50213 4.93871 5.56431C4.50497 5.62263 4.36902 5.71677 4.2929 5.7929C4.21677 5.86902 4.12263 6.00497 4.06431 6.43871C4.00213 6.90121 4 7.52893 4 8.5V15H2V8.5C2 8.47799 2 8.45604 2 8.43417C1.99995 7.54769 1.99991 6.78387 2.08215 6.17221C2.17028 5.5167 2.36902 4.88835 2.87868 4.37868C3.38835 3.86902 4.0167 3.67028 4.67221 3.58215C5.28387 3.49991 6.04769 3.49995 6.93417 3.5Z" fill="white"/>
<path d="M16.5 12C16.5 11.4477 16.9477 11 17.5 11V11C18.0523 11 18.5 11.4477 18.5 12V12C18.5 12.5523 18.0523 13 17.5 13V13C16.9477 13 16.5 12.5523 16.5 12V12Z" fill="white"/>
</svg>

<svg width="24" height="24" fill="none" xmlns="http://www.w3.org/2000/svg"><path fill-rule="evenodd" clip-rule="evenodd" d="M6.934 7H17.066c.886 0 1.65 0 2.262.082.655.088 1.284.287 1.793.797.51.51.709 1.138.797 1.793.082.612.082 1.376.082 2.262v4.132c0 .886 0 1.65-.082 2.262-.088.655-.287 1.284-.797 1.793-.51.51-1.138.709-1.793.797-.612.082-1.376.082-2.262.082H6.934c-.886 0-1.65 0-2.262-.082-.655-.088-1.284-.287-1.793-.797-.51-.51-.709-1.138-.797-1.793C2 17.716 2 16.952 2 16.066V12v-.066c0-.886 0-1.65.082-2.262.088-.655.287-1.284.797-1.793.51-.51 1.138-.709 1.793-.797C5.284 7 6.048 7 6.934 7zM4.94 9.064c-.434.059-.57.153-.646.229-.076.076-.17.212-.229.646C4.002 10.4 4 11.029 4 12v4c0 .971.002 1.599.064 2.061.059.434.153.57.229.646.076.076.212.17.646.229C5.4 18.998 6.029 19 7 19h10c.971 0 1.599-.002 2.061-.064.434-.059.57-.153.646-.229.076-.076.17-.212.229-.646.062-.462.064-1.09.064-2.061v-4c0-.971-.002-1.599-.064-2.061-.059-.434-.153-.57-.229-.646-.076-.076-.212-.17-.646-.229C18.6 9.002 17.971 9 17 9H7c-.971 0-1.599.002-2.061.064z" fill="#fff"/><path fill-rule="evenodd" clip-rule="evenodd" d="M6.934 3.5H13.911c.598 0 1.124 0 1.56.047.473.051.93.164 1.362.448.43.285.715.66.948 1.075.215.383.422.866.658 1.416l.48 1.12-1.838.788-.461-1.076c-.26-.607-.426-.99-.582-1.267-.144-.257-.236-.34-.306-.386-.07-.046-.183-.098-.475-.13-.317-.034-.733-.035-1.395-.035H7c-.971 0-1.599.002-2.061.064-.434.059-.57.153-.646.229-.076.076-.17.212-.229.646C4.002 6.9 4 7.529 4 8.5V15H2V8.5v-.066c0-.886 0-1.65.082-2.262.088-.655.287-1.284.797-1.793.51-.51 1.138-.709 1.793-.797C5.284 3.5 6.048 3.5 6.934 3.5z" fill="#fff"/><path d="M16.5 12a1 1 0 1 1 2 0 1 1 0 1 1-2 0z" fill="#fff"/></svg>
